X:193
T:Sailing into Walpole's Marsh
M:C
L:1/8
K:D Mixolydian
B|A3B A2cA|GEE2 GED2|A3G ABcd|e^cdB BAdB|!
AGG2 AGG2|GEDE GED2|A3G ABcd|e^cdB BAdB|!
A3G c3A|GEE2 GED2|A3G ABcd|e^cdB BAdB|!
AGG2 AGG2|GEDE GED2|A3G ABcd|e^cdB BAA|]!
z|egg2 eaaf|gedB cAA2|egg2 eaab|age^c d2ef|!
g3e a3f|gedB cAAB|c2gc acgc|egge d3:|!
